22x22/apps/org.gnome.seahorse.Application.svg

<svg xmlns="http://www.w3.org/2000/svg" width="22" height="22" version="1">
 <path style="opacity:0.3" d="M 1.571289,2.5 C 0.7007177,2.5 0,3.1897165 0,4.0458985 V 5.05 H 22 V 4.0458985 C 22,3.1897165 21.299282,2.5 20.428711,2.5 Z M 0,8.45 v 9.504101 C 0,18.810283 0.7007177,19.5 1.571289,19.5 H 20.428711 C 21.299282,19.5 22,18.810283 22,17.954101 V 8.45 Z"/>
 <path style="fill:#2cb978" d="M 1.571289,2 C 0.7007177,2 0,2.6897165 0,3.5458985 V 5.55 H 22 V 3.5458985 C 22,2.6897165 21.299282,2 20.428711,2 Z M 0,7.85 v 9.604101 C 0,18.310283 0.7007177,19 1.571289,19 H 20.428711 C 21.299282,19 22,18.310283 22,17.454101 V 7.85 Z"/>
 <path style="opacity:0.2;fill:#f4f4f7" d="M 1.571289,2 C 0.7007177,2 0,2.6897165 0,3.5458985 v 0.5 C 0,3.1897165 0.7007177,2.5 1.571289,2.5 H 20.428711 C 21.299282,2.5 22,3.1897165 22,4.0458985 v -0.5 C 22,2.6897165 21.299282,2 20.428711,2 Z"/>
 <rect style="opacity:0.1" width="22" height=".5" x="0" y="8"/>
 <path style="opacity:0.2" d="M 3.5,10 2,11.5 3.5,13 Z M 4,10 v 3 h 0.5 v -3 z m 1,0 v 3 h 1 v -3 z m 1.5,0 v 3 H 7 v -3 z m 1,0 v 3 H 8 v -3 z m 1,0 v 3 h 1 v -3 z m 1.5,0 v 3 h 1 v -3 z m 1.5,0 v 3 H 12 v -3 z m 1,0 v 3 H 13 v -3 z m 1,0 v 3 H 14 v -3 z m 1,0 v 3 H 15 v -3 z m 1,0 v 3 h 1 v -3 z m 1.5,0 v 3 h 0.5 v -3 z m 1,0 v 3 h 1 v -3 z m 1.5,0 v 3 H 20 v -3 z"/>
 <path style="opacity:0.2" d="M 3.0011719,15.5 3.2023438,16.34375 2.55,15.798828 2.3039062,16.230469 3.14375,16.505859 2.3,16.771484 2.5402344,17.210938 3.2023438,16.660156 3.0011719,17.5 H 3.5714844 L 3.3878906,16.673828 4.0304688,17.226562 4.2765625,16.789062 3.4445312,16.507812 4.3,16.271484 4.0578125,15.833984 3.3820312,16.347656 3.5714844,15.5 Z m 3,0 0.2011719,0.84375 L 5.55,15.798828 5.3039062,16.230469 6.14375,16.505859 5.3,16.771484 5.5402344,17.210938 6.2023438,16.660156 6.0011719,17.5 H 6.5714844 L 6.3878906,16.673828 7.0304688,17.226562 7.2765625,16.789062 6.4445312,16.507812 7.3,16.271484 7.0578125,15.833984 6.3820312,16.347656 6.5714844,15.5 Z m 3.0000001,0 0.201172,0.84375 L 8.55,15.798828 8.3039062,16.230469 9.14375,16.505859 8.3,16.771484 8.5402344,17.210938 9.202344,16.660156 9.001172,17.5 h 0.570312 l -0.183593,-0.826172 0.642578,0.552734 0.246093,-0.4375 L 9.444531,16.507812 10.3,16.271484 10.057812,15.833984 9.382031,16.347656 9.571484,15.5 Z m 3,0 0.201172,0.84375 L 11.55,15.798828 11.303906,16.230469 12.14375,16.505859 11.3,16.771484 11.540234,17.210938 12.202344,16.660156 12.001172,17.5 h 0.570312 l -0.183593,-0.826172 0.642578,0.552734 0.246093,-0.4375 -0.832031,-0.28125 L 13.3,16.271484 13.057812,15.833984 12.382031,16.347656 12.571484,15.5 Z m 3,0 0.201172,0.84375 L 14.55,15.798828 14.303906,16.230469 15.14375,16.505859 14.3,16.771484 14.540234,17.210938 15.202344,16.660156 15.001172,17.5 h 0.570312 l -0.183593,-0.826172 0.642578,0.552734 0.246093,-0.4375 -0.832031,-0.28125 L 16.3,16.271484 16.057812,15.833984 15.382031,16.347656 15.571484,15.5 Z m 3,0 0.201172,0.84375 L 17.55,15.798828 17.303906,16.230469 18.14375,16.505859 17.3,16.771484 17.540234,17.210938 18.202344,16.660156 18.001172,17.5 h 0.570312 l -0.183593,-0.826172 0.642578,0.552734 0.246093,-0.4375 -0.832031,-0.28125 L 19.3,16.271484 19.057812,15.833984 18.382031,16.347656 18.571484,15.5 Z"/>
 <path style="fill:#b2f5c0" d="M 3.0011719,15 3.2023438,15.84375 2.55,15.298828 2.3039062,15.730469 3.14375,16.005859 2.3,16.271484 2.5402344,16.710938 3.2023438,16.160156 3.0011719,17 H 3.5714844 L 3.3878906,16.173828 4.0304688,16.726562 4.2765625,16.289062 3.4445312,16.007812 4.3,15.771484 4.0578125,15.333984 3.3820312,15.847656 3.5714844,15 Z m 3,0 0.2011719,0.84375 L 5.55,15.298828 5.3039062,15.730469 6.14375,16.005859 5.3,16.271484 5.5402344,16.710938 6.2023438,16.160156 6.0011719,17 H 6.5714844 L 6.3878906,16.173828 7.0304688,16.726562 7.2765625,16.289062 6.4445312,16.007812 7.3,15.771484 7.0578125,15.333984 6.3820312,15.847656 6.5714844,15 Z M 9.001172,15 9.202344,15.84375 8.55,15.298828 8.3039062,15.730469 9.14375,16.005859 8.3,16.271484 8.5402344,16.710938 9.202344,16.160156 9.001172,17 h 0.570312 l -0.183593,-0.826172 0.642578,0.552734 0.246093,-0.4375 L 9.444531,16.007812 10.3,15.771484 10.057812,15.333984 9.382031,15.847656 9.571484,15 Z m 3,0 0.201172,0.84375 L 11.55,15.298828 11.303906,15.730469 12.14375,16.005859 11.3,16.271484 11.540234,16.710938 12.202344,16.160156 12.001172,17 h 0.570312 l -0.183593,-0.826172 0.642578,0.552734 0.246093,-0.4375 -0.832031,-0.28125 L 13.3,15.771484 13.057812,15.333984 12.382031,15.847656 12.571484,15 Z m 3,0 0.201172,0.84375 L 14.55,15.298828 14.303906,15.730469 15.14375,16.005859 14.3,16.271484 14.540234,16.710938 15.202344,16.160156 15.001172,17 h 0.570312 l -0.183593,-0.826172 0.642578,0.552734 0.246093,-0.4375 -0.832031,-0.28125 L 16.3,15.771484 16.057812,15.333984 15.382031,15.847656 15.571484,15 Z m 3,0 0.201172,0.84375 L 17.55,15.298828 17.303906,15.730469 18.14375,16.005859 17.3,16.271484 17.540234,16.710938 18.202344,16.160156 18.001172,17 h 0.570312 l -0.183593,-0.826172 0.642578,0.552734 0.246093,-0.4375 -0.832031,-0.28125 L 19.3,15.771484 19.057812,15.333984 18.382031,15.847656 18.571484,15 Z"/>
 <rect style="fill:#17191e" width="22" height="3" x="0" y="5"/>
 <path style="opacity:0.2" d="M 7.5,0.5 C 4.462434,0.5 2,2.9624339 2,6 2,8.1361769 3.220746,9.983645 5,10.894531 V 20.910156 L 6,21.5 H 7.375 L 9.001953,19.732422 8.6269531,19.339844 9.001953,18.947266 8.2519531,18.160156 9.001953,17.375 8.6269531,16.982422 9.001953,16.589844 8.4394531,16 9.001953,15.410156 v -0.58789 L 8.6269531,14.427734 9.001953,14.035156 V 12.515625 L 10,12.484375 V 10.894531 C 11.779254,9.983645 13,8.1361769 13,6 13,2.9624339 10.537566,0.5 7.5,0.5 Z m 0,2.015625 C 8.328411,2.5156251 8.9999775,3.1836936 9,4.0078125 8.9999775,4.8319315 8.328411,5.5 7.5,5.5 6.671589,5.5 6.0000225,4.8319315 6,4.0078125 6.0000225,3.1836936 6.671589,2.5156251 7.5,2.515625 Z"/>
 <path style="fill:#f4f4f7" d="M 5,9.999997 H 9.999999 L 10,11.98363 9.002501,12.01637 v 1.519342 L 8.6275005,13.92857 9.002501,14.321427 v 0.589286 l -0.5625,0.589285 0.5625,0.589286 -0.3750005,0.392857 0.3749985,0.392857 -0.7499995,0.785714 0.7500015,0.785714 -0.3750005,0.392857 0.3750005,0.392857 -1.6275,1.767858 L 6.000047,21 5,20.41071 Z"/>
 <path style="opacity:0.2" d="m 6.146778,11.113091 c 0.317454,-0.243029 0.859188,-0.06723 0.8531105,0.276819 l 1.12e-4,9.610088 L 6.000047,21 v -9.61009 c -0.00185,-0.103697 0.051065,-0.203556 0.146731,-0.276819 z"/>
 <path style="fill:#f4f4f7" d="M 7.5,0 C 4.462434,0 2,2.4624339 2,5.5 2,8.537566 4.462434,11 7.5,11 10.537566,11 13,8.537566 13,5.5 13,2.4624339 10.537566,0 7.5,0 Z m 0,2.0158125 C 8.328411,2.0158126 8.9999775,2.6838811 9,3.508 8.9999775,4.332119 8.328411,5.0001875 7.5,5.0001875 6.671589,5.0001875 6.0000225,4.332119 6,3.508 6.0000225,2.6838811 6.671589,2.0158126 7.5,2.0158125 Z"/>
 <path style="opacity:0.2;fill:#f4f4f7" d="M 7.5,0 C 4.462434,0 2,2.4624339 2,5.5 2,5.584388 2.0099,5.66654 2.01367,5.75 2.145273,2.8293066 4.54682,0.5 7.499998,0.5 c 2.953178,0 5.354725,2.3293066 5.486328,5.25 C 12.990089,5.66654 13,5.5843882 13,5.5 13,2.4624339 10.537566,0 7.5,0 Z M 6.0253906,3.7578125 C 6.0114742,3.8394736 6.0000023,3.9222103 6,4.0078125 6.0000225,4.8319315 6.671589,5.5 7.5,5.5 8.328411,5.5 8.9999775,4.8319315 9,4.0078125 8.9999977,3.9222105 8.988526,3.8394736 8.974609,3.7578125 8.8545483,4.4623278 8.242363,5 7.5,5 6.757637,5 6.1454517,4.4623278 6.0253906,3.7578125 Z"/>
</svg>

<svg xmlns="http://www.w3.org/2000/svg" width="22" height="22" version="1"><path style="opacity:.3" d="M1.571 2.5C.701 2.5 0 3.19 0 4.046V5.05h22V4.046c0-.856-.7-1.546-1.571-1.546zM0 8.45v9.504C0 18.81.7 19.5 1.571 19.5H20.43c.87 0 1.571-.69 1.571-1.546V8.45z"/><path style="fill:#2cb978" d="M1.571 2C.701 2 0 2.69 0 3.546V5.55h22V3.546C22 2.69 21.3 2 20.429 2zM0 7.85v9.604C0 18.31.7 19 1.571 19H20.43c.87 0 1.571-.69 1.571-1.546V7.85z"/><path style="opacity:.2;fill:#f4f4f7" d="M1.571 2C.701 2 0 2.69 0 3.546v.5C0 3.19.7 2.5 1.571 2.5H20.43c.87 0 1.571.69 1.571 1.546v-.5C22 2.69 21.3 2 20.429 2z"/><path style="opacity:.1" d="M0 8h22v.5H0z"/><path style="opacity:.2" d="M3.5 10 2 11.5 3.5 13zm.5 0v3h.5v-3zm1 0v3h1v-3zm1.5 0v3H7v-3zm1 0v3H8v-3zm1 0v3h1v-3zm1.5 0v3h1v-3zm1.5 0v3h.5v-3zm1 0v3h.5v-3zm1 0v3h.5v-3zm1 0v3h.5v-3zm1 0v3h1v-3zm1.5 0v3h.5v-3zm1 0v3h1v-3zm1.5 0v3h.5v-3zM3.001 15.5l.201.844-.652-.545-.246.431.84.276-.844.265.24.44.662-.55-.2.839h.57l-.184-.826.642.553.247-.438-.832-.281.855-.237-.242-.437-.676.514.19-.848zm3 0 .201.844-.652-.545-.246.431.84.276-.844.265.24.44.662-.55-.2.839h.57l-.184-.826.642.553.247-.438-.832-.281.855-.237-.242-.437-.676.514.19-.848zm3 0 .201.844-.652-.545-.246.431.84.276-.844.265.24.44.662-.55-.2.839h.57l-.184-.826.642.553.247-.438-.832-.281.855-.237-.242-.437-.676.514.19-.848zm3 0 .201.844-.652-.545-.246.431.84.276-.844.265.24.44.662-.55-.2.839h.57l-.184-.826.642.553.247-.438-.832-.281.855-.237-.242-.437-.676.514.19-.848zm3 0 .201.844-.652-.545-.246.431.84.276-.844.265.24.44.662-.55-.2.839h.57l-.184-.826.642.553.247-.438-.832-.281.855-.237-.242-.437-.676.514.19-.848zm3 0 .201.844-.652-.545-.246.431.84.276-.844.265.24.44.662-.55-.2.839h.57l-.184-.826.642.553.247-.438-.832-.281.855-.237-.242-.437-.676.514.19-.848z"/><path style="fill:#b2f5c0" d="m3.001 15 .201.844-.652-.545-.246.431.84.276-.844.265.24.44.662-.55-.2.839h.57l-.184-.826.642.553.247-.438-.832-.281.855-.237-.242-.437-.676.514.19-.848zm3 0 .201.844-.652-.545-.246.431.84.276-.844.265.24.44.662-.55-.2.839h.57l-.184-.826.642.553.247-.438-.832-.281.855-.237-.242-.437-.676.514.19-.848zm3 0 .201.844-.652-.545-.246.431.84.276-.844.265.24.44.662-.55-.2.839h.57l-.184-.826.642.553.247-.438-.832-.281.855-.237-.242-.437-.676.514.19-.848zm3 0 .201.844-.652-.545-.246.431.84.276-.844.265.24.44.662-.55-.2.839h.57l-.184-.826.642.553.247-.438-.832-.281.855-.237-.242-.437-.676.514.19-.848zm3 0 .201.844-.652-.545-.246.431.84.276-.844.265.24.44.662-.55-.2.839h.57l-.184-.826.642.553.247-.438-.832-.281.855-.237-.242-.437-.676.514.19-.848zm3 0 .201.844-.652-.545-.246.431.84.276-.844.265.24.44.662-.55-.2.839h.57l-.184-.826.642.553.247-.438-.832-.281.855-.237-.242-.437-.676.514.19-.848z"/><path style="fill:#17191e" d="M0 5h22v3H0z"/><path style="opacity:.2" d="M7.5.5A5.496 5.496 0 0 0 5 10.895V20.91l1 .59h1.375l1.627-1.768-.375-.392.375-.393-.75-.787.75-.785-.375-.393.375-.392-.563-.59.563-.59v-.588l-.375-.394.375-.393v-1.52l.998-.03v-1.59A5.496 5.496 0 0 0 7.5.5zm0 2.016c.828 0 1.5.668 1.5 1.492S8.328 5.5 7.5 5.5 6 4.832 6 4.008s.672-1.492 1.5-1.492z"/><path style="fill:#f4f4f7" d="M5 10h5v1.984l-.997.032v1.52l-.375.393.375.392v.59l-.563.589.563.59-.375.392.374.393-.75.786.75.785-.374.393.375.393L7.375 21H6l-1-.59z"/><path style="opacity:.2" d="M6.147 11.113c.317-.243.859-.067.853.277V21H6v-9.61a.344.344 0 0 1 .147-.277z"/><path style="fill:#f4f4f7" d="M7.5 0a5.5 5.5 0 1 0 0 11 5.5 5.5 0 0 0 0-11zm0 2.016c.828 0 1.5.668 1.5 1.492S8.328 5 7.5 5 6 4.332 6 3.508s.672-1.492 1.5-1.492z"/><path style="opacity:.2;fill:#f4f4f7" d="M7.5 0A5.5 5.5 0 0 0 2 5.5c0 .084.01.167.014.25A5.494 5.494 0 0 1 7.5.5a5.494 5.494 0 0 1 5.486 5.25c.004-.083.014-.166.014-.25A5.5 5.5 0 0 0 7.5 0zM6.025 3.758a1.48 1.48 0 0 0-.025.25C6 4.832 6.672 5.5 7.5 5.5S9 4.832 9 4.008a1.48 1.48 0 0 0-.025-.25A1.495 1.495 0 0 1 7.5 5a1.495 1.495 0 0 1-1.475-1.242z"/></svg>
